src/assets/images/icon-yt.svg

<svg fill="none" height="88" viewBox="0 0 124 88" width="124" xmlns="http://www.w3.org/2000/svg"><path d="m107.218 1.62199c-28.2311-1.895705-61.7012-2.414122-90.4519 0-8.92746.99815-15.04183 11.84621-15.70829 20.08671-1.410413 17.309-1.410413 27.1589 0 44.4678.67421 8.2405 6.63358 19.1505 15.71599 20.2957 29.0917 1.9034 62.3914 2.1665 90.4522 0 8.788-1.5243 15.042-12.0552 15.716-20.2957 1.411-17.3089 1.411-28.2344 0-45.551-.682-8.2406-5.61-18.63211-15.724-19.00351zm-60.7248 64.27601v-44.375l38.7476 22.1914z" fill="#fff"/></svg>

<svg width="124" height="88" viewBox="0 0 124 88" fill="none" xmlns="http://www.w3.org/2000/svg">
<path d="M107.218 1.62199C78.9869 -0.273715 45.5168 -0.792132 16.7661 1.62199C7.83864 2.62014 1.72427 13.4682 1.05781 21.7087C-0.352603 39.0177 -0.352603 48.8676 1.05781 66.1765C1.73202 74.417 7.69139 85.327 16.7738 86.4722C45.8655 88.3756 79.1652 88.6387 107.226 86.4722C116.014 84.9479 122.268 74.417 122.942 66.1765C124.353 48.8676 124.353 37.9421 122.942 20.6255C122.26 12.3849 117.332 1.99339 107.218 1.62199ZM46.4932 65.898V21.523L85.2408 43.7144L46.4932 65.898Z" fill="white"/>
</svg>
